src/assets/Imgs/lightMenu/cityHall.svg

<svg fill="none" height="24" viewBox="0 0 24 24" width="24" xmlns="http://www.w3.org/2000/svg"><g stroke="#1a1323" stroke-width="1.5"><path d="m3.03293 10h17.93417c1.0201 0 1.4207-1.35142.5719-1.92941l-8.3952-5.71684c-.6926-.47167-1.595-.47167-2.2876 0l-8.39518 5.71684c-.84878.57799-.4482 1.92941.57191 1.92941z"/><path d="m6 10h4v8h-4z"/><path d="m14 10h4v8h-4z"/><path d="m19.382 18c.3787 0 .725.214.8944.5528l1 2c.3324.6649-.1511 1.4472-.8944 1.4472h-16.76397c-.74338 0-1.22687-.7823-.89442-1.4472l1-2c.16939-.3388.51565-.5528.89442-.5528z"/></g></svg>

<svg width="24" height="24" viewBox="0 0 24 24" fill="none" xmlns="http://www.w3.org/2000/svg">
<g id="bank">
<path id="Rectangle 579" d="M3.03293 10L20.9671 10C21.9872 10 22.3878 8.64858 21.539 8.07059L13.1438 2.35375C12.4512 1.88208 11.5488 1.88208 10.8562 2.35375L2.46102 8.07059C1.61224 8.64858 2.01282 10 3.03293 10Z" stroke="#1A1323" stroke-width="1.5"/>
<rect id="Rectangle 580" x="6" y="10" width="4" height="8" stroke="#1A1323" stroke-width="1.5"/>
<rect id="Rectangle 581" x="14" y="10" width="4" height="8" stroke="#1A1323" stroke-width="1.5"/>
<path id="Rectangle 582" d="M19.382 18C19.7607 18 20.107 18.214 20.2764 18.5528L21.2764 20.5528C21.6088 21.2177 21.1253 22 20.382 22L3.61803 22C2.87465 22 2.39116 21.2177 2.72361 20.5528L3.72361 18.5528C3.893 18.214 4.23926 18 4.61803 18L19.382 18Z" stroke="#1A1323" stroke-width="1.5"/>
</g>
</svg>
